/* XPM */
static char * product_logo_32_xpm[] = {
"32 32 2 1",
"  c None",
"R c #7c3aed",
"           RRRRR  RRRRR         ",
"         RRRRRRR  RRRRRR        ",
"        RRRRRRR   RRRRRRR       ",
"       RRRRRRRR   RRRRRRRR      ",
"      RRRRRRRRR    RRRRRRRR     ",
"     RRRRRRRRRR    RRRRRRRRR    ",
"   RRRRRRRRRRR     RRRRRRRRRRR  ",
" RRRRRRRRRRRRR     RRRRRRRRRRRR ",
" RRRRRRRRRRRRR     RRRRRRRRRRRR ",
" RRRRRRRRRRRRR     RRRRRRRRRRRR ",
" RRRRRRRRRRRRR     RRRRRRRRRRRR ",
" RRRRRRRRRRRRR     RRRRRRRRRRRR ",
" RRRRRRRRRRRRRR    RRRRRRRRRRRR ",
" RRRRRRRRRRRRRR  RRRRRRRRRRRRRR ",
" RRRRRRRRRRRRR   RRRRRRRRRRRRRR ",
" RRRRRRRRRRRRR  RRRRRRRRRRRRRRR ",
" RRRRRRRRRRRRRR RRRRRRRRRRRRRRR ",
"  RRRRRRRRRRRRRRRRRRRRRRRRRRRRR ",
"  RRRRRRRRRRRRRRRRRRRRRRRRRRRR  ",
"  RRRRRRRRRRRRRRRRRRRRRRRRRRRR  ",
"  RRRRRRRRRRRRRRRRRRRRRRRRRRRR  ",
"   RRRRRRRRRRRRRRRRRRRRRRRRRR   ",
"    RRRRRRRRRRRRRRRRRRRRRRRRR   ",
"    RRRRRRRRRRRRRRRRRRRRRRRR    ",
"     RRRRRRRRRRRRRRRRRRRRRR     ",
"      RRRRRRRRRRRRRRRRRRRR      ",
"       RRRRRRRRRRRRRRRRRR       ",
"        RRRRRRRRRRRRRRRR        ",
"         RRRRRRRRRRRRRR         ",
"           RRRRRRRRRRR          ",
"            RRRRRRRR            ",
"              RRRR              ",
};
